X:84
T: DIE DONAU IST INS WASSER GEFALLN
N: E1113
O: Europa, Mitteleuropa, Deutschland, Hessen, Lahn - Gegend
R: Luegen - Lied, Maerchen
M: 2/4
L: 1/16
K: G
D2 | D2G2G2A2 | B2B2B2
B2 | A2B2c2B2 | A2B2c2
B2 | A2G2F2G2 | A2F2D2
D2 | G2B2d2cd | B4z2

